public/logo.svg

<svg width="64" height="65" viewBox="0 0 64 65" fill="none" xmlns="http://www.w3.org/2000/svg">
<path d="M40.2459 33.9181C40.2433 33.9193 40.243 33.9217 40.2454 33.9256C40.3186 34.0441 40.3799 34.1574 40.4896 34.357C40.976 35.2416 41.4727 36.5616 41.5543 38.0146L41.6009 38.8456L41.9369 39.0911C42.6245 39.5936 43.5363 39.9654 44.5395 40.1498C44.7701 40.1922 45.3777 40.2247 45.9378 40.2247C47.0667 40.2245 47.9343 40.0771 48.5415 39.7968C49.3318 39.4322 49.6223 38.9903 49.626 38.3187C49.6307 37.4813 49.2955 37.0654 48.1819 36.5265C47.4732 36.1835 46.8384 36.0828 44.3355 35.3481C42.408 34.7823 42.4024 34.7824 41.1758 34.295C40.8615 34.1701 40.2852 33.9004 40.2459 33.9181Z" fill="#001752"/>
<path d="M18.0301 24.0124C16.9011 24.0125 16.0336 24.1599 15.4263 24.4401C14.6361 24.8048 14.3456 25.2466 14.3418 25.9182C14.3372 26.7556 14.6724 27.1716 15.786 27.7105C16.4946 28.0535 17.1295 28.1542 19.6323 28.8889C21.5599 29.4548 21.5654 29.4546 22.792 29.942C23.1273 30.0752 23.7606 30.3732 23.7224 30.3113C23.6492 30.1928 23.588 30.0796 23.4782 29.88C22.9919 28.9955 22.4951 27.6753 22.4136 26.2223L22.3669 25.3915L22.0309 25.1458C21.3434 24.6433 20.4316 24.2716 19.4284 24.0872C19.1978 24.0448 18.5902 24.0123 18.0301 24.0124Z" fill="#001752"/>
<path d="M45.0438 46.1133L44.4699 46.0467C44.2557 46.0307 44.042 46.0095 43.8292 45.9835C43.6164 45.9575 43.4045 45.9266 43.1939 45.8911C42.9834 45.8557 42.774 45.8156 42.5665 45.7712C42.359 45.7268 42.1532 45.6781 41.9496 45.6253C41.8611 45.5993 41.7714 45.5734 41.6898 45.5468C41.2229 45.3944 40.8663 45.2777 40.5755 45.1773C40.2847 45.0769 40.0595 44.9928 39.8555 44.9057C39.667 44.8152 39.4657 44.7085 39.2232 44.5734C38.9807 44.4383 38.6971 44.2747 38.3442 44.0702C38.3279 44.0604 38.3103 44.0514 38.2955 44.0396L38.0456 44.2298C37.8991 44.3413 37.7486 44.4463 37.5952 44.5452C37.4418 44.6441 37.2854 44.7369 37.1271 44.8239C36.9688 44.9109 36.8085 44.9921 36.6472 45.068C36.4859 45.1439 36.3236 45.2144 36.1612 45.2799C35.9177 45.3782 35.6741 45.4653 35.4336 45.5424C35.1931 45.6195 34.9557 45.6867 34.7247 45.7452C34.5515 45.7891 34.3819 45.8282 34.2172 45.8629C34.0525 45.8976 33.8928 45.9279 33.7394 45.9545C33.4326 46.0077 33.1511 46.0457 32.9058 46.0728C32.6606 46.1 32.4517 46.1163 32.2899 46.1262C32.1282 46.136 32.0138 46.1393 31.9574 46.1404C31.8823 46.1389 31.7038 46.1336 31.4478 46.114C31.3198 46.1043 31.1724 46.0909 31.0089 46.0728C30.8455 46.0547 30.6659 46.0318 30.4734 46.0028C30.2809 45.9738 30.0756 45.9386 29.8606 45.8961C29.6456 45.8536 29.4211 45.8037 29.1901 45.7452C28.9591 45.6867 28.7217 45.6195 28.4812 45.5424C28.2407 45.4652 27.9971 45.3782 27.7536 45.2799C27.5912 45.2144 27.4289 45.1439 27.2676 45.068C27.1063 44.9921 26.946 44.9109 26.7877 44.8239C26.6294 44.7369 26.4731 44.6441 26.3197 44.5452C26.1663 44.4463 26.0158 44.3413 25.8693 44.2298L25.6203 44.0404C25.6253 44.0377 25.5922 44.0565 25.5706 44.0702C25.2177 44.2747 24.9341 44.4383 24.6916 44.5734C24.4491 44.7085 24.2477 44.8152 24.0593 44.9057C23.8553 44.9928 23.6301 45.0769 23.3393 45.1773C23.0484 45.2777 22.692 45.3944 22.225 45.5468C22.1434 45.5734 22.0538 45.5993 21.9653 45.6253C21.7617 45.6781 21.5558 45.7268 21.3483 45.7712C21.1407 45.8156 20.9315 45.8557 20.7209 45.8911C20.5103 45.9266 20.2984 45.9575 20.0856 45.9835C19.8728 46.0095 19.6592 46.0307 19.445 46.0467L18.917 46.1186C19.3516 46.5292 19.8052 46.9193 20.2761 47.2876C20.8305 47.7141 21.4077 48.1099 22.0051 48.4735C22.6025 48.8371 23.2194 49.1678 23.8528 49.4643C24.4863 49.7606 25.1355 50.0222 25.7974 50.2479C26.4594 50.4735 27.1332 50.6629 27.8158 50.8151C28.4984 50.9674 29.1888 51.0823 29.8839 51.1594C30.5582 51.233 31.2359 51.2709 31.9142 51.2729C31.929 51.2726 31.9436 51.2733 31.9584 51.273C31.9905 51.2733 32.0238 51.2718 32.056 51.2719C32.709 51.2687 33.3613 51.2323 34.0106 51.1627C34.0675 51.1563 34.1254 51.1477 34.1826 51.1407C34.6796 51.0778 35.1739 50.9956 35.6644 50.8941C35.7777 50.8705 35.89 50.8495 36.0042 50.8235C36.2426 50.7691 36.483 50.7093 36.7253 50.6441C36.9675 50.5789 37.2115 50.5082 37.4572 50.4317C37.7029 50.3552 37.9503 50.273 38.1991 50.1849C38.448 50.0967 38.6985 50.0026 38.9502 49.9024C39.2019 49.8021 39.4549 49.6957 39.7092 49.5829C39.9634 49.4702 40.2189 49.3511 40.4754 49.2254C40.7319 49.0997 40.9895 48.9674 41.2479 48.8284C41.5064 48.6893 41.7657 48.5435 42.0257 48.3907C42.1649 48.3089 42.3047 48.2199 42.4442 48.1341C42.8664 47.8681 43.2781 47.5857 43.6784 47.2876C44.1516 46.9177 44.6072 46.5258 45.0438 46.1133Z" fill="#001752"/>
<path d="M32.0454 12.8181C31.997 12.8185 31.9614 12.8182 31.9124 12.8186C31.909 12.8186 31.9066 12.8187 31.9032 12.8186C31.2493 12.8217 30.5959 12.858 29.9457 12.9276C29.271 13.0012 28.6006 13.1104 27.9374 13.2549C27.2742 13.3993 26.6191 13.5787 25.9749 13.7924C25.3307 14.0061 24.6983 14.2537 24.0803 14.5343C23.4622 14.8149 22.8595 15.128 22.2745 15.4723C21.6896 15.8166 21.1234 16.1916 20.5781 16.5957C20.0328 16.9999 19.5093 17.4326 19.0098 17.8921C18.9905 17.9118 18.9712 17.9314 18.952 17.9512L19.3989 17.9846C19.6131 18.0006 19.8267 18.0219 20.0395 18.0479C20.2523 18.0739 20.4642 18.1047 20.6748 18.1402C20.8854 18.1757 21.0947 18.2157 21.3023 18.2601C21.5098 18.3045 21.7157 18.3533 21.9193 18.4061C22.0078 18.4321 22.0974 18.458 22.179 18.4846C22.646 18.637 23.0025 18.7537 23.2933 18.8541C23.5841 18.9545 23.8092 19.0385 24.0132 19.1256C24.2016 19.2161 24.4031 19.3228 24.6455 19.4579C24.888 19.593 25.1716 19.7567 25.5245 19.9612C25.5461 19.9749 25.5792 19.9938 25.5742 19.991L25.8232 19.8015C25.9698 19.69 26.1203 19.585 26.2737 19.4861C26.4271 19.3872 26.5834 19.2945 26.7417 19.2075C26.9 19.1205 27.0603 19.0392 27.2215 18.9633C27.3828 18.8875 27.5451 18.8169 27.7075 18.7514C27.951 18.6531 28.1946 18.5661 28.4351 18.4889C28.6756 18.4118 28.913 18.3446 29.144 18.2861C29.375 18.2276 29.5995 18.1777 29.8145 18.1352C30.0295 18.0927 30.2348 18.0576 30.4273 18.0285C30.6198 17.9995 30.7994 17.9766 30.9629 17.9585C31.1264 17.9404 31.2737 17.9271 31.4017 17.9174C31.6577 17.8978 31.8363 17.8924 31.9114 17.8909C31.9678 17.892 32.0822 17.8953 32.2439 17.9052C32.4057 17.915 32.6146 17.9313 32.8598 17.9585C33.1051 17.9857 33.3866 18.0237 33.6934 18.0769C33.8468 18.1035 34.0065 18.1339 34.1712 18.1686C34.3359 18.2033 34.5056 18.2422 34.6788 18.2861C34.9098 18.3446 35.1471 18.4118 35.3876 18.4889C35.6281 18.5661 35.8717 18.6531 36.1152 18.7514C36.2775 18.8169 36.4399 18.8875 36.6011 18.9633C36.7624 19.0392 36.9228 19.1205 37.0811 19.2075C37.2394 19.2945 37.3957 19.3872 37.5491 19.4861C37.7025 19.585 37.853 19.69 37.9995 19.8015L38.2495 19.9918C38.2643 19.98 38.2819 19.971 38.2982 19.9612C38.6511 19.7567 38.9347 19.593 39.1772 19.4579C39.4197 19.3228 39.6211 19.2161 39.8096 19.1256C40.0136 19.0385 40.2386 18.9545 40.5294 18.8541C40.8202 18.7537 41.1768 18.637 41.6437 18.4846C41.7253 18.458 41.815 18.4321 41.9035 18.4061C42.1071 18.3533 42.3128 18.3045 42.5204 18.2601C42.7279 18.2157 42.9372 18.1757 43.1478 18.1402C43.3584 18.1047 43.5704 18.0739 43.7832 18.0479C43.996 18.0219 44.2097 18.0006 44.4239 17.9846L45.009 17.9123C45.0002 17.9033 44.9914 17.8943 44.9826 17.8853C44.4816 17.425 43.9565 16.9915 43.4095 16.5868C42.8626 16.182 42.2946 15.8066 41.7079 15.462C41.1211 15.1175 40.5165 14.8044 39.8966 14.524C39.2767 14.2435 38.6423 13.9962 37.9961 13.783C37.35 13.5698 36.693 13.391 36.028 13.2475C35.3629 13.1039 34.6906 12.9957 34.0141 12.9234C33.3601 12.8547 32.703 12.8196 32.0454 12.8181Z" fill="#001752"/>
<path d="M49.7812 24.7814C49.7671 24.7612 49.7536 24.737 49.7387 24.7221C49.6704 24.6889 49.6109 24.6659 49.5322 24.6411C49.4536 24.6164 49.3557 24.5899 49.2108 24.5499C48.7818 24.4313 48.4043 24.3146 48.0104 24.219C47.8134 24.1711 47.6123 24.1286 47.3986 24.0937C47.1849 24.0588 46.9585 24.0315 46.711 24.0144C46.4361 23.9955 46.1638 23.9864 45.8978 23.9867C45.6096 23.9871 45.3287 23.9987 45.0593 24.0206C44.79 24.0426 44.5324 24.0751 44.2908 24.1175C44.0492 24.16 43.8237 24.2123 43.6186 24.2741C43.4136 24.3358 43.2291 24.4069 43.0694 24.4868C42.9673 24.5378 42.8717 24.5942 42.7831 24.6556C42.6945 24.717 42.6128 24.7833 42.5385 24.8542C42.4642 24.9251 42.3973 25.0005 42.3382 25.08C42.2791 25.1595 42.2278 25.2432 42.1848 25.3305C42.1288 25.4443 42.0867 25.5708 42.0585 25.704C42.0302 25.8372 42.016 25.9771 42.0156 26.1179C42.0153 26.2587 42.0289 26.4005 42.0565 26.5372C42.0841 26.6739 42.1256 26.8056 42.1811 26.9264C42.2331 27.0396 42.301 27.1502 42.3872 27.2589C42.4734 27.3676 42.5778 27.4745 42.703 27.5806C42.8282 27.6867 42.974 27.7921 43.143 27.8975C43.312 28.003 43.504 28.1087 43.7216 28.2154C43.9392 28.3221 44.1824 28.4299 44.4535 28.5398C44.7246 28.6497 45.0236 28.7618 45.353 28.8768C45.6824 28.9919 46.0421 29.11 46.4346 29.2321C46.8271 29.3541 47.2524 29.4802 47.7128 29.6112C47.9605 29.6817 48.2224 29.7538 48.4883 29.8304C48.7543 29.907 49.0243 29.9881 49.2882 30.0767C49.5521 30.1653 49.8099 30.2616 50.0516 30.3682C50.1724 30.4215 50.2892 30.4773 50.4007 30.5363C50.5122 30.5952 50.6184 30.6571 50.718 30.7224C50.9006 30.842 50.9169 30.8662 51.1817 31.0569C51.1667 30.7576 51.1446 30.4587 51.1156 30.1604C51.0847 29.8472 51.0462 29.5349 51 29.2236C50.9539 28.9123 50.9001 28.6022 50.8387 28.2936C50.7773 27.985 50.7083 27.6779 50.6318 27.3726C50.5554 27.0674 50.4714 26.764 50.3801 26.4629C50.2887 26.1618 50.19 25.8629 50.084 25.5666C49.9888 25.3027 49.8878 25.0409 49.7812 24.7814Z" fill="#001752"/>
<path d="M14.2334 39.3621C14.2946 39.3909 14.3503 39.4135 14.4222 39.4361C14.5009 39.4608 14.5987 39.4873 14.7436 39.5273C15.1726 39.6459 15.55 39.7626 15.944 39.8582C16.1409 39.9061 16.3421 39.9487 16.5558 39.9836C16.7696 40.0185 16.9959 40.0457 17.2435 40.0628C17.6099 40.0881 17.9717 40.0958 18.3204 40.087C18.6691 40.0782 19.0048 40.0527 19.3192 40.012C19.4765 39.9916 19.6284 39.9674 19.774 39.9394C19.9196 39.9114 20.0588 39.8797 20.1906 39.8443C20.3225 39.809 20.447 39.7702 20.5631 39.7278C20.6791 39.6854 20.7868 39.6396 20.885 39.5904C20.9871 39.5394 21.0827 39.4829 21.1713 39.4215C21.26 39.3601 21.3417 39.2938 21.416 39.2229C21.4902 39.1521 21.5571 39.0767 21.6162 38.9972C21.6752 38.9177 21.7265 38.8341 21.7695 38.7468C21.8256 38.633 21.8677 38.5065 21.8959 38.3733C21.9241 38.2401 21.9384 38.1001 21.9387 37.9593C21.939 37.8185 21.9254 37.6768 21.8979 37.5401C21.8703 37.4034 21.8288 37.2716 21.7733 37.1508C21.7212 37.0376 21.6533 36.9271 21.5671 36.8184C21.481 36.7097 21.3765 36.6027 21.2513 36.4966C21.1262 36.3905 20.9803 36.2851 20.8113 36.1797C20.6423 36.0742 20.4503 35.9685 20.2327 35.8618C20.0151 35.7551 19.7719 35.6472 19.5008 35.5373C19.2298 35.4274 18.9307 35.3154 18.6014 35.2004C18.272 35.0853 17.9122 34.9672 17.5197 34.8451C17.1272 34.7231 16.702 34.5969 16.2415 34.4659C15.9939 34.3954 15.732 34.3234 15.4661 34.2468C15.2002 34.1702 14.9302 34.089 14.6662 34.0004C14.4023 33.9118 14.1445 33.8157 13.9028 33.7091C13.782 33.6558 13.6652 33.5999 13.5537 33.5409C13.4422 33.482 13.336 33.4201 13.2364 33.3548C13.0718 33.2469 13.0141 33.1961 12.8184 33.0531C12.8336 33.6311 12.8748 34.2081 12.942 34.7823C13.0723 35.6888 13.2673 36.5848 13.5252 37.4635C13.7278 38.1083 13.9641 38.7421 14.2334 39.3621Z" fill="#001752"/>
</svg>

<svg xmlns="http://www.w3.org/2000/svg" fill="none" viewBox="0 0 64 65"><path fill="#001752" d="M40.246 33.918c-.003.001-.003.004 0 .008.073.118.134.231.244.431.486.885.983 2.205 1.064 3.658l.047.83.336.246c.688.503 1.6.874 2.602 1.059.231.042.839.075 1.399.075 1.129 0 1.996-.148 2.603-.428.79-.365 1.081-.807 1.085-1.478.005-.838-.33-1.254-1.444-1.793-.709-.343-1.344-.443-3.846-1.178-1.928-.566-1.934-.566-3.16-1.053-.315-.125-.89-.395-.93-.377ZM18.03 24.012c-1.129 0-1.996.148-2.604.428-.79.365-1.08.807-1.084 1.478-.005.838.33 1.254 1.444 1.793.709.343 1.344.443 3.846 1.178 1.928.566 1.933.566 3.16 1.053.335.133.969.431.93.37-.073-.12-.134-.232-.244-.432-.486-.884-.983-2.205-1.064-3.658l-.047-.83-.336-.246c-.688-.503-1.6-.874-2.603-1.059-.23-.042-.838-.075-1.398-.075ZM45.044 46.113l-.574-.066a13.696 13.696 0 0 1-1.276-.156 14.465 14.465 0 0 1-1.244-.266c-.089-.026-.179-.052-.26-.078a74.65 74.65 0 0 1-1.114-.37c-.291-.1-.517-.184-.72-.271-.189-.09-.39-.197-.633-.333a62.966 62.966 0 0 1-.879-.503c-.016-.01-.034-.019-.049-.03l-.25.19a7.06 7.06 0 0 1-.918.594 8.588 8.588 0 0 1-.966.456c-.243.098-.487.185-.727.262a11.868 11.868 0 0 1-1.217.32 13.534 13.534 0 0 1-2.26.278 12.791 12.791 0 0 1-1.484-.138 13.651 13.651 0 0 1-1.283-.257 11.868 11.868 0 0 1-.709-.203 10.594 10.594 0 0 1-1.213-.474 8.588 8.588 0 0 1-.948-.523 7.06 7.06 0 0 1-.45-.315l-.25-.19-.05.03c-.352.205-.636.368-.878.503-.243.136-.444.242-.633.333-.204.087-.429.17-.72.271-.29.1-.647.217-1.114.37-.082.026-.171.052-.26.078a14.771 14.771 0 0 1-1.88.358c-.212.027-.426.048-.64.064l-.528.072c.435.41.888.8 1.36 1.169a19.245 19.245 0 0 0 9.607 3.871c.674.074 1.352.112 2.03.114h.044l.098-.001c.653-.003 1.305-.04 1.955-.11l.172-.021c.497-.063.99-.145 1.481-.247.114-.023.226-.044.34-.07a19.296 19.296 0 0 0 2.195-.64 20.95 20.95 0 0 0 2.276-.959 22.942 22.942 0 0 0 1.55-.834c.14-.082.28-.171.42-.257a19.22 19.22 0 0 0 1.233-.846c.474-.37.93-.762 1.366-1.175ZM32.045 12.818H31.903a19.25 19.25 0 0 0-1.957.11 19.228 19.228 0 0 0-10.936 4.964l-.058.06.447.033a13.692 13.692 0 0 1 1.276.155 14.622 14.622 0 0 1 1.244.266c.089.026.178.052.26.079.467.152.824.269 1.114.37.291.1.516.183.72.27.189.091.39.198.632.333.243.135.527.299.88.503.021.014.054.033.05.03l.248-.19a7.091 7.091 0 0 1 .919-.593 8.622 8.622 0 0 1 .965-.457 11.868 11.868 0 0 1 2.107-.616 13.795 13.795 0 0 1 1.588-.218 9.29 9.29 0 0 1 .51-.026 12.427 12.427 0 0 1 .948.068 13.782 13.782 0 0 1 1.819.327c.23.059.468.126.709.203a10.594 10.594 0 0 1 1.213.474 8.593 8.593 0 0 1 .948.523c.154.099.304.204.45.316l.25.19c.015-.012.033-.021.05-.03.352-.205.636-.369.878-.504.243-.135.444-.242.633-.332.204-.088.429-.172.72-.272.29-.1.647-.217 1.114-.37.081-.026.171-.052.26-.078a14.73 14.73 0 0 1 1.88-.358c.212-.026.426-.047.64-.063l.585-.073-.026-.027a19.233 19.233 0 0 0-10.969-4.962 19.265 19.265 0 0 0-1.969-.105ZM49.781 24.781c-.014-.02-.027-.044-.042-.059a1.413 1.413 0 0 0-.207-.08c-.078-.026-.176-.052-.321-.092-.43-.119-.807-.235-1.2-.331a7.404 7.404 0 0 0-1.3-.205 11.688 11.688 0 0 0-.813-.027c-.288 0-.57.012-.839.034-.269.022-.527.054-.768.096a5.863 5.863 0 0 0-.672.157c-.205.062-.39.133-.55.213a2.33 2.33 0 0 0-.286.169 1.781 1.781 0 0 0-.445.424 1.598 1.598 0 0 0-.28.624 2.106 2.106 0 0 0-.002.833 1.627 1.627 0 0 0 .33.722c.087.109.192.215.317.322.125.106.271.211.44.317.169.105.361.21.579.317.217.107.46.215.731.325.272.11.57.222.9.337.33.115.69.233 1.082.355.392.122.817.248 1.278.38.248.07.51.142.775.218.266.077.536.158.8.247.264.088.522.185.764.291.12.054.237.11.349.168.111.06.217.121.317.186.183.12.199.144.464.335a19.194 19.194 0 0 0-.343-2.763 19.22 19.22 0 0 0-1.058-3.513ZM14.233 39.362c.062.029.117.051.19.074.078.025.176.051.32.091.43.119.807.236 1.201.331a7.408 7.408 0 0 0 1.3.205c.366.025.728.033 1.076.024.35-.009.685-.034 1-.075.157-.02.308-.045.454-.073.146-.028.285-.06.417-.095s.256-.074.372-.116c.116-.043.224-.088.322-.138.102-.05.198-.107.286-.169a1.78 1.78 0 0 0 .445-.424c.06-.08.11-.163.154-.25.056-.114.098-.24.126-.374a2.112 2.112 0 0 0 .002-.833 1.632 1.632 0 0 0-.33-.722 2.28 2.28 0 0 0-.317-.321 3.733 3.733 0 0 0-.44-.317 6.489 6.489 0 0 0-.578-.318c-.218-.107-.461-.215-.732-.325-.271-.11-.57-.222-.9-.337-.329-.115-.689-.233-1.081-.355a55.237 55.237 0 0 0-1.279-.38c-.247-.07-.509-.142-.775-.218a19.417 19.417 0 0 1-.8-.247 9.001 9.001 0 0 1-.763-.29 5.458 5.458 0 0 1-.35-.17 3.91 3.91 0 0 1-.317-.185c-.164-.108-.222-.159-.418-.302.016.578.057 1.155.124 1.73.13.906.325 1.802.583 2.68.203.645.44 1.28.708 1.9Z"/></svg>
